X:1
T: Fairly Shot o' Her
T: 8x32J 3C (RSCDS Bk 26)
P: Jacky's Return
C: arr. T. Traub 12/19/1997, mods 6-3-07
C: original key: F
R: Jig
M: 6/8
%
K: D
L: 1/8
|: A|"D"d2 D D2 F|"G"G2 B "A7"E2 G|"D"FED AGF|"E"F3 "A"E2 A|"D"d2 D D2 F|"Em"G2 B "A7"E2 G|"D"FED "G"AGF|"A"E3 "D"D2 :|
|: A|"D"ABA d2 e|"D"f2 d d3|"G"Bcd "D"AGF|"Em"G2 E E2 A|"D"dAd fdf|"D"afd "G"b3|"D"fdB AFD|"A"E2 D "D"D2 :|
